X:684
%%etbk:tnset id:434,pos:2,rep:3x,ant:
%%etbk:wsite https://thesession.org/tunes/79
%%etbk:color #e6ffe6
%%etbk:pldat 2016-09-17T15:40,2016-09-09T18:54,2016-09-08T18:35,2016-09-07T17:20,2016-09-03T11:40,2016-08-05T16:46,2016-07-31T16:20,2016-07-28T18:56,2016-07-23T17:09,2016-07-18T18:49,2016-07-15T16:24,2016-07-09T14:09,2016-07-07T16:52,2016-06-18T16:45,2016-06-13T16:57,2016-06-12T14:29,2016-05-04T17:17,2016-03-31T18:01,2016-03-22T18:11,2016-01-18T18:56,2016-01-17T14:24,2016-01-14T18:32,2016-01-13T17:18,2016-01-12T17:56,2016-01-04T19:02,2016-01-03T14:24,2015-12-29T17:48,2015-12-28T17:24,2015-12-22T17:52,2015-12-21T19:38,2015-12-16T17:52,2015-12-14T18:26,2015-08-14T17:19,2015-05-20T16:56,2015-05-06T18:30,2015-05-02T16:14,2015-04-27T19:24,2015-04-25T15:52
T: Paddy Ryan's Dream
Z: Piano Box Version by Martin Fleischmann
H: Created 2015-04-10 /  Last Modified 2016-06-12
R: reel
M: 4/4
L: 1/8
K: Amin
AB|:!3!A!1!EEE cEEE|!2!EG !1!D!3!C !2!B,CDB,|A,3 B, C!4!D!1!EG|!3!ABcB AEGB|!
AEEE cABG| !1!E2 !1!D!3!C B,CDB,|A,A,A,B, C!4!D!1!EG|cABG ABcB:|
|:A!5!aa^g a!3!e!2!c!1!A|!1!Ggg^f gdBG|Aaa^g ae=fg|!2!e=f!1!de !1!ce!1!Be|!
A2aA aecA|GggG gdBG|!1!A2 !2!Bd !1!ce!2!d=f|!3!e!2!d!1!c!2!B !1!ABcB:|!


